!! 00000] TT[WS
!!!OTL: Qingzhu bianqu lincanhui
!!!ARE: Asia, China, Shanxi Zuoquan
!! Ethnic Group: Han
!! WII, 232 (1)
!!!SCT: J0747
!!!YEM: Copyright 1995, estate of Helmut Schaffrath.
**kern
*ICvox
*Ivox
*M2/4
*k[f#]
*G:
{8dd
8dd
8ee
8dd
=1
8dd
8a
4dd
=2
8a
8g
8a
8b
=3
8f#
8e
4d}
=4
{8g
8f#
8e
8g
=5
8a
8b
4a
=6
4dd
8a
8dd
=7
8g
8f#
8a
8e
=8
2d}
==
!!!AGN: Xiaodiao. XÅshi, Xinminge
!!!ONB: ESAC (Essen Associative Code) Database: CHINA
!!!AMT: simple duple
!!!AIN: vox
!!!EED: Helmut Schaffrath
!!!EEV: 1.0
*-
